X: 3
T: Rural Felicity
T: Cathleen / Kathleen Hehir's
T: Hehir's
N: just these two parts, 32 bars, AABB
M: 6/8
L: 1/8
R: slide
K: D Major
|: A |\ 
dcd e2 d c2 E EFG | BcB BAG F2 D DFA |
dcd e2 d c2 E EFG | ABA GFE D3- D2 :|
|: E |\ 
F2 A dcd c2 B G3 | ABA GFE B2 A F3 |
DFA dcd c2 B G2 F | EFG ABc d3- d2 :|
